X: 20422
T: JACK'S HORNPIPE
C:
%R: hornpipe, reel
B: Elias Howe "The Musician's Companion" 1843 p.42 #2
S: http://imslp.org/wiki/The_Musician's_Companion_(Howe,_Elias)
Z: 2015 John Chambers <jc:trillian.mit.edu>
M: C|
L: 1/8
K: D
% - - - - - - - - - - - - - - - - - - - - - - - - -
fg |\
afge dfed | cdec ABAG | FA df gfed | (ce)A2 A2fg |\
afge dfed | cdec ABAG | FA df gedc | d2d2 d2 :|
|: cd |\
eAAA eAeA | fAAA fAfA | gfed dcBA | B2B2 B2AG |\
FA df [ae]cAG | FA df a2gf | babg fedc | d2d2 d2 :|
% - - - - - - - - - - - - - - - - - - - - - - - - -

%%sep 1 1 500

